!!!COM: Fe/licien David
!!!CNT: Francais
!!!TXO: Francais
!!!OTL: Eoline
!!!LYR: Edouard Plouvier
!!!ENC: Jacob Pegg
!!!YOR: Romantic French Song 1830-1870, David Tunley, ed., New York: Garland Publishing, Inc., 1995
!!!ODT: 1866/
!!NB: Vocal melody and text only encoded.
!!NB: Only first strophe and refrain encoded.
**kern	**silbe
*clef G2	*
*k[b-e-a-d-]	*
*M4/4	*
=1	=1
1r	.
=2	=2
4r	.
8r	.
{8cc	{Bel
4.ee-	an-
8dd-	-ge ou
=3	=3
4cc	fem-
4aa-	-me,
4e-	Lis
8.b-	dans
16dd-	mon
=4	=4
4cc	a^-
8a-	-me,
8a-	En
4.dd-	toi
8cc	j'ai
=5	=5
4b-	foi,
(8.cc	Mon
16b-)	|
4a-	a^-
(8.cc	-me a\
16b-)	|
=6	=6
4e-}	toi!}
8r	.
{8cc	{Bel
4.ee-	an-
8dd-	-ge ou
=7	=7
4cc	fem-
4a-	-me
4e-	Lis
8.b-	dans
16dd-	mon
=8	=8
(4cc	a^-
8a-)	-me,
8cc	En
4.cc	toi
8cc	j'ai
=9	=9
4cc	foi,
(8.dd-	Mon
16an)	|
4b-	a^-
(4cc	me a\
=10	=10
4a-)}	toi!}
4r	.
2r	.
=11	=11
1r	.
=12	=12
2r	.
*k[b-e-a-]	*
{4b-	{Quand
8.b-	vient
16cc	le
=13	=13
4.b-	soir,
8a-	Dans
(8g	un
8ee-)	|
(8.dd	nu-
16cc)	|
=14	=14
4cc	-a-
4b-	-ge,
4b-	C'est
8.g	ton
16f	i-
=15	=15
4f	-ma-
8e-	-ge
8e-	Que
(4b-	je
8a-)	|
8g	crois
=16	=16
4f}	voir!}
4r	.
{4b-	{J'aime,
8b-	o^
8cc	Syl-
=17	=17
4.b-	-phi-
8a-	-de,
(8g	Ton
8ee-)	|
8dd	front
8cc	can-
=18	=18
4cc	-di-
4bn	-de;
4c	Ton
8.a-	oeil
16g	hu-
=19	=19
(8f	-mi-
8a-)	|
(8b-	-de
8cc)	Est
(8dd	mon
4gg)	|
8ff	mi-
=20	=20
[1ee-	-roir,
=21	=21
4ee-]}	|}
{4een	{Est
4ff	mon
(8.dd-	mi-
16b-)	|
=22	=22
1g;}	-roir!}
*-	*-
